;FLAVOR:Marlin
;TIME:14515
;Filament used: 4.27855m
;Layer height: 0.1
;MINX:23.698
;MINY:26.999
;MINZ:0.24
;MAXX:97.799
;MAXY:113
;MAXZ:14.24
;Generated with Cura_SteamEngine 4.8.0
M104 S200
M105
M109 S200
M82 ;absolute extrusion mode
; -- START GCODE --
G21                     ;set units to millimetres
G90                     ;set to absolute positioning
M106 S0                 ;set fan speed to zero (turned off)
G28                     ;home all axis
G92 E0                  ;zero the extruded length
G1 Z1 F1000             ;move up slightly
G1 Y60.0 Z0 E9.0 F1000.0;intro line
G1 Y100.0 E21.5 F1000.0 ;continue line
G92 E0                  ;zero the extruded length again
; -- end of START GCODE --
G92 E0
G92 E0
G1 F2700 E-5
;LAYER_COUNT:134
;LAYER:-8
M107
G0 F7200 X28.426 Y31.236 Z0.24
;TYPE:SUPPORT-INTERFACE
G1 F2700 E0
G1 F675 X29.097 Y30.633 E0.07201
G1 X29.213 Y30.537 E0.08403
G1 X29.925 Y29.987 E0.15585
G1 X30.084 Y29.874 E0.17142
G1 X30.822 Y29.384 E0.24213
G1 X30.948 Y29.308 E0.25388
G1 X31.742 Y28.862 E0.32657
G1 X31.892 Y28.784 E0.34007
G1 X32.707 Y28.401 E0.41195
G1 X32.85 Y28.341 E0.42433
G1 X33.709 Y28.012 E0.49776
G1 X33.859 Y27.96 E0.51043
G1 X34.709 Y27.705 E0.58127
G1 X34.882 Y27.658 E0.59558
G1 X35.777 Y27.458 E0.66878
G1 X35.907 Y27.435 E0.67932
G1 X36.812 Y27.301 E0.75235
G1 X36.981 Y27.283 E0.76592
G1 X37.87 Y27.217 E0.83708
G1 X38.054 Y27.208 E0.85178
G1 X38.559 Y27.2 E0.8921
G1 X52.102 Y27.201 E1.97316
G1 X53.103 Y27.237 E2.05311
G1 X53.226 Y27.246 E2.06296
G1 X54.143 Y27.348 E2.13661
G1 X54.318 Y27.373 E2.15072
G1 X55.207 Y27.537 E2.22288
G1 X55.33 Y27.565 E2.23295
G1 X56.224 Y27.799 E2.30672
G1 X56.378 Y27.845 E2.31955
G1 X57.32 Y28.166 E2.39899
G1 X57.967 Y28.342 E2.45251
G1 X58.638 Y28.435 E2.50659
G1 X59.042 Y28.45 E2.53886
G1 X61.677 Y28.45 E2.74919
G1 X62.345 Y28.408 E2.80262
G1 X63.015 Y28.279 E2.85709
G1 X63.582 Y28.098 E2.9046
G1 X63.8 Y28.015 E2.92322
G1 X63.959 Y27.96 E2.93665
G1 X64.809 Y27.705 E3.00748
G1 X64.982 Y27.658 E3.0218
G1 X65.877 Y27.458 E3.095
G1 X66.007 Y27.435 E3.10554
G1 X66.912 Y27.301 E3.17857
G1 X67.081 Y27.283 E3.19213
G1 X67.97 Y27.217 E3.26329
G1 X68.154 Y27.208 E3.278
G1 X68.659 Y27.2 E3.31831
G1 X83.002 Y27.201 E4.46323
G1 X84.003 Y27.237 E4.54319
G1 X84.126 Y27.246 E4.55303
G1 X85.043 Y27.348 E4.62669
G1 X85.218 Y27.373 E4.6408
G1 X86.107 Y27.537 E4.71296
G1 X86.23 Y27.565 E4.72303
G1 X87.124 Y27.799 E4.79679
G1 X87.287 Y27.848 E4.81038
G1 X88.129 Y28.134 E4.88136
G1 X88.295 Y28.198 E4.89557
G1 X89.098 Y28.539 E4.9652
G1 X89.287 Y28.627 E4.98185
G1 X90.081 Y29.035 E5.05311
G1 X90.198 Y29.102 E5.06387
G1 X90.977 Y29.576 E5.13666
G1 X91.128 Y29.676 E5.15111
G1 X91.842 Y30.187 E5.2212
G1 X91.99 Y30.3 E5.23607
G1 X92.681 Y30.876 E5.30787
G1 X92.794 Y30.977 E5.31997
G1 X93.443 Y31.602 E5.3919
G1 X93.563 Y31.727 E5.40573
G1 X94.166 Y32.398 E5.47774
G1 X94.262 Y32.514 E5.48976
G1 X94.821 Y33.238 E5.56277
G1 X94.915 Y33.369 E5.57564
G1 X95.415 Y34.123 E5.64786
G1 X95.491 Y34.249 E5.65961
G1 X95.937 Y35.043 E5.7323
G1 X96.015 Y35.193 E5.7458
G1 X96.398 Y36.008 E5.81768
G1 X96.458 Y36.151 E5.83006
G1 X96.787 Y37.01 E5.90349
G1 X96.839 Y37.16 E5.91616
G1 X97.094 Y38.01 E5.987
G1 X97.141 Y38.183 E6.00131
G1 X97.339 Y39.069 E6.07378
G1 X97.364 Y39.208 E6.08505
G1 X97.497 Y40.107 E6.15759
G1 X97.515 Y40.269 E6.1706
G1 X97.582 Y41.171 E6.2428
G1 X97.591 Y41.355 E6.25751
G1 X97.599 Y41.856 E6.29751
G1 X97.599 Y63.036 E7.98819
G1 X97.563 Y64.042 E8.06854
G1 X97.553 Y64.177 E8.07935
G1 X97.451 Y65.094 E8.153
G1 X97.426 Y65.269 E8.16711
G1 X97.264 Y66.147 E8.23838
G1 X97.234 Y66.281 E8.24934
G1 X97.003 Y67.166 E8.32235
G1 X96.952 Y67.336 E8.33652
G1 X96.685 Y68.118 E8.40248
G1 X96.509 Y68.764 E8.45592
G1 X96.414 Y69.441 E8.51049
G1 X96.406 Y70.123 E8.56494
G1 X96.484 Y70.808 E8.61997
G1 X96.753 Y71.768 E8.69955
G1 X96.778 Y71.833 E8.70511
G1 X96.843 Y72.024 E8.72122
G1 X97.094 Y72.86 E8.79089
G1 X97.141 Y73.033 E8.8052
G1 X97.339 Y73.919 E8.87767
G1 X97.364 Y74.058 E8.88895
G1 X97.497 Y74.957 E8.96149
G1 X97.515 Y75.119 E8.9745
G1 X97.582 Y76.021 E9.0467
G1 X97.591 Y76.205 E9.06141
G1 X97.599 Y76.706 E9.1014
G1 X97.599 Y98.186 E10.81603
G1 X97.563 Y99.192 E10.89639
G1 X97.553 Y99.327 E10.90719
G1 X97.451 Y100.244 E10.98084
G1 X97.426 Y100.419 E10.99495
G1 X97.264 Y101.297 E11.06622
G1 X97.234 Y101.431 E11.07718
G1 X97.003 Y102.316 E11.15019
G1 X96.951 Y102.488 E11.16454
G1 X96.675 Y103.3 E11.233
G1 X96.595 Y103.509 E11.25086
G1 X96.26 Y104.299 E11.31936
G1 X96.179 Y104.474 E11.33475
G1 X95.764 Y105.282 E11.40726
G1 X95.697 Y105.399 E11.41802
G1 X95.223 Y106.178 E11.49081
G1 X95.123 Y106.329 E11.50527
G1 X94.612 Y107.043 E11.57535
G1 X94.499 Y107.191 E11.59022
G1 X93.923 Y107.882 E11.66203
G1 X93.822 Y107.995 E11.67413
G1 X93.197 Y108.644 E11.74605
G1 X93.072 Y108.764 E11.75988
G1 X92.402 Y109.366 E11.83178
G1 X92.285 Y109.463 E11.84391
G1 X91.573 Y110.013 E11.91573
G1 X91.414 Y110.126 E11.9313
G1 X90.676 Y110.616 E12.00201
G1 X90.55 Y110.692 E12.01376
G1 X89.756 Y111.138 E12.08645
G1 X89.605 Y111.216 E12.10002
G1 X88.791 Y111.599 E12.17183
G1 X88.648 Y111.659 E12.18421
G1 X87.789 Y111.988 E12.25764
G1 X87.639 Y112.04 E12.27031
G1 X86.789 Y112.295 E12.34115
G1 X86.616 Y112.342 E12.35546
G1 X85.721 Y112.542 E12.42866
G1 X85.591 Y112.565 E12.4392
G1 X84.686 Y112.699 E12.51223
G1 X84.518 Y112.717 E12.52572
G1 X83.628 Y112.783 E12.59695
G1 X83.444 Y112.792 E12.61166
G1 X82.939 Y112.8 E12.65198
G1 X38.496 Y112.799 E16.19961
G1 X37.495 Y112.763 E16.27956
G1 X37.372 Y112.754 E16.28941
G1 X36.455 Y112.652 E16.36306
G1 X36.28 Y112.627 E16.37717
G1 X35.391 Y112.463 E16.44933
G1 X35.268 Y112.435 E16.4594
G1 X34.374 Y112.201 E16.53317
G1 X34.211 Y112.152 E16.54675
G1 X33.369 Y111.866 E16.61774
G1 X33.203 Y111.802 E16.63194
G1 X32.4 Y111.461 E16.70158
G1 X32.211 Y111.373 E16.71822
G1 X31.417 Y110.965 E16.78948
G1 X31.3 Y110.898 E16.80024
G1 X30.521 Y110.424 E16.87303
G1 X30.37 Y110.324 E16.88749
G1 X29.656 Y109.813 E16.95758
G1 X29.508 Y109.7 E16.97244
G1 X28.817 Y109.124 E17.04425
G1 X28.704 Y109.023 E17.05635
G1 X28.055 Y108.398 E17.12827
G1 X27.935 Y108.273 E17.1421
G1 X27.332 Y107.602 E17.21411
G1 X27.235 Y107.484 E17.22631
G1 X26.677 Y106.762 E17.29915
G1 X26.573 Y106.615 E17.31352
G1 X26.08 Y105.872 E17.3847
G1 X26.007 Y105.751 E17.39598
G1 X25.555 Y104.946 E17.46967
G1 X25.483 Y104.807 E17.48217
G1 X25.086 Y103.961 E17.55677
G1 X25.04 Y103.849 E17.56643
G1 X24.711 Y102.99 E17.63986
G1 X24.654 Y102.825 E17.65379
G1 X24.404 Y101.99 E17.72337
G1 X24.357 Y101.817 E17.73768
G1 X24.156 Y100.916 E17.81137
G1 X24.134 Y100.792 E17.82142
G1 X23.999 Y99.878 E17.89517
G1 X23.982 Y99.718 E17.90802
G1 X23.916 Y98.826 E17.97941
G1 X23.907 Y98.645 E17.99388
G1 X23.899 Y98.144 E18.03388
G1 X23.899 Y41.814 E22.53038
G1 X23.935 Y40.808 E22.61074
G1 X23.945 Y40.673 E22.62154
G1 X24.047 Y39.756 E22.69519
G1 X24.072 Y39.581 E22.7093
G1 X24.234 Y38.703 E22.78057
G1 X24.264 Y38.569 E22.79153
G1 X24.495 Y37.684 E22.86455
G1 X24.547 Y37.512 E22.87889
G1 X24.833 Y36.67 E22.94987
G1 X24.897 Y36.504 E22.96407
G1 X25.238 Y35.701 E23.03371
G1 X25.319 Y35.526 E23.04911
G1 X25.734 Y34.718 E23.12161
G1 X25.801 Y34.601 E23.13238
G1 X26.275 Y33.822 E23.20517
G1 X26.375 Y33.671 E23.21962
G1 X26.886 Y32.957 E23.28971
G1 X26.999 Y32.809 E23.30457
G1 X27.575 Y32.118 E23.37638
G1 X27.676 Y32.005 E23.38848
G1 X28.301 Y31.356 E23.4604
G1 X28.426 Y31.236 E23.47424
G0 F7200 X28.8 Y30.899
G1 F675 X28.8 Y109.108 E29.71722
G0 F7200 X30.4 Y110.343
G1 F675 X30.4 Y29.664 E36.15736
G0 F7200 X32 Y28.733
G1 F675 X32 Y111.264 E42.74534
G0 F7200 X33.6 Y111.944
G1 F675 X33.6 Y28.053 E49.44189
G0 F7200 X35.2 Y27.586
G1 F675 X35.2 Y112.417 E56.21346
G0 F7200 X36.8 Y112.69
G1 F675 X36.8 Y27.302 E63.0295
G0 F7200 X38.4 Y27.202
G1 F675 X38.4 Y112.795 E69.86191
G0 F7200 X40 Y112.799
G1 F675 X40 Y27.201 E76.69471
G0 F7200 X41.6 Y27.201
G1 F675 X41.6 Y112.799 E83.52751
G0 F7200 X43.2 Y112.799
G1 F675 X43.2 Y27.201 E90.36031
G0 F7200 X44.8 Y27.201
G1 F675 X44.8 Y112.799 E97.19312
G0 F7200 X46.4 Y112.799
G1 F675 X46.4 Y27.201 E104.02592
G0 F7200 X48 Y27.201
G1 F675 X48 Y112.799 E110.85872
G0 F7200 X49.6 Y112.799
G1 F675 X49.6 Y27.201 E117.69152
G0 F7200 X51.2 Y27.201
G1 F675 X51.2 Y112.799 E124.52433
G0 F7200 X52.8 Y112.799
G1 F675 X52.8 Y27.227 E131.35505
G0 F7200 X54.4 Y27.389
G1 F675 X54.4 Y112.799 E138.17285
G0 F7200 X56 Y112.799
G1 F675 X56 Y27.741 E144.96255
G0 F7200 X57.6 Y28.243
G1 F675 X57.6 Y112.799 E151.71217
G0 F7200 X59.2 Y112.799
G1 F675 X59.2 Y28.45 E158.44527
G0 F7200 X60.8 Y28.45
G1 F675 X60.8 Y112.799 E165.17838
G0 F7200 X62.4 Y112.799
G1 F675 X62.4 Y28.397 E171.91571
G0 F7200 X64 Y27.947
G1 F675 X64 Y112.799 E178.68896
G0 F7200 X65.6 Y112.799
G1 F675 X65.6 Y27.519 E185.49638
G0 F7200 X67.2 Y27.274
G1 F675 X67.2 Y112.799 E192.32336
G0 F7200 X68.8 Y112.799
G1 F675 X68.8 Y27.201 E199.15616
G0 F7200 X70.4 Y27.201
G1 F675 X70.4 Y112.799 E205.98896
G0 F7200 X72 Y112.799
G1 F675 X72 Y27.201 E212.82176
G0 F7200 X73.6 Y27.201
G1 F675 X73.6 Y112.799 E219.65457
G0 F7200 X75.2 Y112.799
G1 F675 X75.2 Y27.201 E226.48737
G0 F7200 X76.8 Y27.201
G1 F675 X76.8 Y112.799 E233.32017
G0 F7200 X78.4 Y112.799
G1 F675 X78.4 Y27.201 E240.15297
G0 F7200 X80 Y27.201
G1 F675 X80 Y112.799 E246.98578
G0 F7200 X81.6 Y112.799
G1 F675 X81.6 Y27.201 E253.81858
G0 F7200 X83.2 Y27.209
G1 F675 X83.2 Y112.796 E260.6505
G0 F7200 X84.8 Y112.683
G1 F675 X84.8 Y27.321 E267.46447
G0 F7200 X86.4 Y27.61
G1 F675 X86.4 Y112.391 E274.23205
G0 F7200 X88 Y111.908
G1 F675 X88 Y28.091 E280.92269
G0 F7200 X89.6 Y28.788
G1 F675 X89.6 Y111.219 E287.50269
G0 F7200 X91.2 Y110.269
G1 F675 X91.2 Y29.728 E293.93182
G0 F7200 X92.8 Y30.983
G1 F675 X92.8 Y109.009 E300.16019
G0 F7200 X94.4 Y107.31
G1 F675 X94.4 Y32.693 E306.11644
G0 F7200 X96 Y35.165
G1 F675 X96 Y104.823 E311.67684
G0 F7200 X27.2 Y107.438
G1 F675 X27.2 Y32.567 E317.65337
G0 F7200 X25.6 Y34.978
G1 F675 X25.6 Y105.026 E323.24491
G0 F7200 X24 Y99.884
G1 F675 X24 Y40.178 E328.0109
G0 F600 X24 Y40.178 Z0.39
G0 F7200 X25.482 Y104.805
;TIME_ELAPSED:370.630882
;LAYER:-7
;TYPE:SUPPORT
G1 F675 X25.555 Y104.945 E328.01877
G1 X26.006 Y105.749 E328.06477
G1 X26.08 Y105.871 E328.07188
G1 X26.573 Y106.614 E328.11637
G1 X26.677 Y106.761 E328.12535
G1 X27.234 Y107.483 E328.17085
G1 X27.331 Y107.601 E328.17847
G1 X27.934 Y108.272 E328.22348
G1 X28.054 Y108.397 E328.23212
G1 X28.703 Y109.022 E328.27707
G1 X28.817 Y109.123 E328.28467
G1 X29.507 Y109.699 E328.32951
G1 X29.656 Y109.812 E328.33884
G1 X30.369 Y110.323 E328.38261
G1 X30.521 Y110.423 E328.39169
G1 X31.3 Y110.897 E328.43718
G1 X31.417 Y110.964 E328.44391
G1 X32.138 Y111.334 E328.48434
G1 X25.369 Y104.565 E328.96193
G1 X25.086 Y103.96 E328.99525
G1 X25.04 Y103.848 E329.00129
G1 X24.711 Y102.989 E329.04718
G1 X24.653 Y102.824 E329.05591
G1 X24.487 Y102.269 E329.08481
G1 X34.433 Y112.215 E329.78655
G1 X35.267 Y112.434 E329.82957
G1 X35.39 Y112.462 E329.83586
G1 X36.254 Y112.621 E329.87969
G1 X24.083 Y100.45 E330.73842
G1 X23.999 Y99.877 E330.76732
G1 X23.982 Y99.717 E330.77534
G1 X23.918 Y98.871 E330.81767
G1 X37.82 Y112.773 E331.79853
G1 X38.495 Y112.798 E331.83223
G1 X39.259 Y112.798 E331.87035
G1 X23.898 Y97.437 E332.95415
G1 X23.898 Y96.023 E333.02469
G1 X40.673 Y112.798 E334.20826
G1 X42.087 Y112.798 E334.2788
G1 X23.898 Y94.609 E335.56214
G1 X23.898 Y93.195 E335.63268
G1 X43.501 Y112.798 E337.01578
G1 X44.916 Y112.798 E337.08637
G1 X23.898 Y91.781 E338.56927
G1 X23.898 Y90.366 E338.63987
G1 X46.33 Y112.798 E340.22257
G1 X47.744 Y112.798 E340.29311
G1 X23.898 Y88.952 E341.97557
G1 X23.898 Y87.538 E342.04612
G1 X49.158 Y112.798 E343.82835
G1 X50.572 Y112.798 E343.89889
G1 X23.898 Y86.124 E345.78089
G1 X23.898 Y84.709 E345.85148
G1 X51.987 Y112.798 E347.83331
G1 X53.401 Y112.798 E347.90386
G1 X23.898 Y83.295 E349.98545
G1 X23.898 Y81.881 E350.056
G1 X54.815 Y112.798 E352.23736
G1 X56.229 Y112.798 E352.3079
G1 X23.898 Y80.467 E354.58903
G1 X23.898 Y79.053 E354.65958
G1 X57.644 Y112.798 E357.0405
G1 X59.058 Y112.798 E357.11105
G1 X23.898 Y77.638 E359.59178
G1 X23.898 Y76.224 E359.66232
G1 X60.472 Y112.798 E362.24281
G1 X61.886 Y112.798 E362.31336
G1 X23.898 Y74.81 E364.99362
G1 X23.898 Y73.396 E365.06416
G1 X63.3 Y112.798 E367.84419
G1 X64.715 Y112.798 E367.91478
G1 X23.898 Y71.982 E370.79461
G1 X23.898 Y70.567 E370.8652
G1 X66.129 Y112.798 E373.84482
G1 X67.543 Y112.798 E373.91537
G1 X23.898 Y69.153 E376.99476
G1 X23.898 Y67.739 E377.0653
G1 X68.957 Y112.798 E380.24446
G1 X70.371 Y112.798 E380.31501
G1 X23.898 Y66.325 E383.59393
G1 X23.898 Y64.91 E383.66452
G1 X71.786 Y112.798 E387.04328
G1 X73.2 Y112.798 E387.11382
G1 X23.898 Y63.496 E390.59235
G1 X23.898 Y62.082 E390.66289
G1 X74.614 Y112.798 E394.24118
G1 X76.028 Y112.798 E394.31172
G1 X23.898 Y60.668 E397.98978
G1 X23.898 Y59.254 E398.06032
G1 X77.443 Y112.798 E401.83817
G1 X78.857 Y112.798 E401.90872
G1 X23.898 Y57.839 E405.78637
G1 X23.898 Y56.425 E405.85692
G1 X80.271 Y112.798 E409.83434
G1 X81.685 Y112.798 E409.90488
G1 X23.898 Y55.011 E413.98207
G1 X23.898 Y53.597 E414.05261
G1 X83.097 Y112.796 E418.22942
G1 X83.443 Y112.791 E418.24668
G1 X83.628 Y112.782 E418.25593
G1 X84.437 Y112.722 E418.2964
G1 X23.898 Y52.183 E422.56775
G1 X23.898 Y50.768 E422.63835
G1 X85.678 Y112.548 E426.99726
G1 X85.721 Y112.541 E426.99943
G1 X86.615 Y112.341 E427.04514
G1 X86.788 Y112.294 E427.05408
G1 X86.826 Y112.282 E427.05607
G1 X23.898 Y49.354 E431.49598
G1 X23.898 Y47.94 E431.56652
G1 X87.901 Y111.943 E436.08228
G1 X88.647 Y111.658 E436.12212
G1 X88.791 Y111.598 E436.12991
G1 X88.913 Y111.54 E436.13664
G1 X23.898 Y46.526 E440.72377
G1 X23.898 Y45.111 E440.79436
G1 X89.863 Y111.076 E445.44855
G1 X90.549 Y110.691 E445.4878
G1 X90.675 Y110.614 E445.49516
G1 X90.759 Y110.558 E445.5002
G1 X23.898 Y43.697 E450.2176
G1 X23.898 Y42.283 E450.28815
G1 X91.603 Y109.988 E455.0651
G1 X92.285 Y109.462 E455.10807
G1 X92.397 Y109.368 E455.11537
G1 X23.931 Y40.901 E459.94605
G1 X23.934 Y40.807 E459.95074
G1 X23.944 Y40.672 E459.95749
G1 X24.047 Y39.754 E460.00358
G1 X24.065 Y39.622 E460.01023
G1 X93.14 Y108.697 E464.88384
G1 X93.197 Y108.643 E464.88776
G1 X93.822 Y107.994 E464.93271
G1 X93.836 Y107.978 E464.93377
G1 X24.296 Y38.439 E469.84016
G1 X24.494 Y37.683 E469.87915
G1 X24.547 Y37.511 E469.88813
G1 X24.606 Y37.334 E469.89744
G1 X94.482 Y107.21 E474.82756
G1 X94.499 Y107.19 E474.82887
G1 X94.611 Y107.042 E474.83813
G1 X95.078 Y106.391 E474.8781
G1 X24.984 Y36.297 E479.82362
G1 X25.238 Y35.7 E479.85598
G1 X25.318 Y35.525 E479.86558
G1 X25.422 Y35.322 E479.87696
G1 X95.622 Y105.522 E484.82995
G1 X95.697 Y105.398 E484.83718
G1 X95.763 Y105.281 E484.84388
G1 X96.114 Y104.6 E484.88211
G1 X25.918 Y34.404 E489.83481
G1 X26.274 Y33.82 E489.86894
G1 X26.374 Y33.67 E489.87793
G1 X26.467 Y33.538 E489.88599
G1 X96.548 Y103.619 E494.83058
G1 X96.595 Y103.507 E494.83664
G1 X96.674 Y103.299 E494.84774
G1 X96.92 Y102.577 E494.88579
G1 X27.068 Y32.724 E499.81426
G1 X27.575 Y32.117 E499.85372
G1 X27.675 Y32.004 E499.86125
G1 X27.717 Y31.959 E499.86432
G1 X97.225 Y101.467 E504.76849
G1 X97.234 Y101.43 E504.77039
G1 X97.263 Y101.295 E504.77727
G1 X97.425 Y100.418 E504.82177
G1 X97.447 Y100.275 E504.82899
G1 X28.416 Y31.244 E509.6995
G1 X28.426 Y31.235 E509.70017
G1 X29.096 Y30.632 E509.74514
G1 X29.163 Y30.578 E509.74943
G1 X97.57 Y98.985 E514.57591
G1 X97.598 Y98.185 E514.61585
G1 X97.598 Y97.598 E514.64514
G1 X29.961 Y29.961 E519.41729
G1 X30.083 Y29.873 E519.4248
G1 X30.807 Y29.393 E519.46813
G1 X97.598 Y96.184 E524.1806
G1 X97.598 Y94.769 E524.2512
G1 X31.708 Y28.88 E528.90006
G1 X31.741 Y28.861 E528.90196
G1 X31.891 Y28.784 E528.91037
G1 X32.664 Y28.421 E528.95297
G1 X97.598 Y93.355 E533.53442
G1 X97.598 Y91.941 E533.60496
G1 X33.68 Y28.023 E538.11472
G1 X33.708 Y28.012 E538.11622
G1 X33.858 Y27.959 E538.12416
G1 X34.708 Y27.705 E538.16842
G1 X34.762 Y27.691 E538.1712
G1 X97.598 Y90.527 E542.60462
G1 X97.598 Y89.113 E542.67517
G1 X35.918 Y27.433 E547.02702
G1 X36.811 Y27.3 E547.07207
G1 X36.98 Y27.283 E547.08054
G1 X37.169 Y27.269 E547.09
